src/assets/img/providers/pragmaticplaylive-g.svg

<svg width="76" height="34" viewBox="0 0 76 34" fill="none" xmlns="http://www.w3.org/2000/svg">
<g clip-path="url(#clip0_4416_8702)">
<path fill-rule="evenodd" clip-rule="evenodd" d="M50.9914 22.101C50.9914 15.5596 56.2761 10.2749 62.8173 10.2749C69.3587 10.2749 74.6435 15.5596 74.6435 22.101C74.6435 28.6423 69.3587 33.9271 62.8173 33.9271C56.2761 33.9271 50.9914 28.6423 50.9914 22.101ZM52.2109 22.138C52.2109 27.9771 56.9782 32.7075 62.8173 32.7075C68.6566 32.6705 73.387 27.9401 73.387 22.101C73.387 16.2619 68.6196 11.5314 62.7805 11.5314C56.9414 11.5314 52.2109 16.2987 52.2109 22.138ZM60.1196 7.39228C60.1196 7.39228 59.6391 4.10316 62.4478 1.99663C60.9696 5.10098 61.7826 8.27923 62.0044 9.01836C59.9718 9.09228 57.9761 9.68359 56.2391 10.7553C55.9805 9.94228 54.8348 6.91184 51.9152 5.2488C55.4261 5.43359 56.8673 8.39011 56.8673 8.39011C56.8673 8.39011 55.7587 3.62272 56.0544 0.000976562C58.3457 2.80968 60.1196 7.39228 60.1196 7.39228ZM64.3698 13.2336C60.711 13.4554 62.3371 18.2598 66.4023 18.001C70.3566 17.7423 68.2871 12.9749 64.3698 13.2336ZM1.76555 23.2472V25.7233H0.730774V19.3668H2.91122C3.65033 19.3668 4.20466 19.5516 4.57421 19.8842C4.94377 20.2168 5.12854 20.6972 5.12854 21.3255C5.12854 21.9168 4.94377 22.3972 4.57421 22.7668C4.20466 23.1364 3.65033 23.2842 2.94823 23.2842L1.76555 23.2472ZM4.05689 21.3255C4.05689 20.9559 3.946 20.6972 3.76122 20.5124C3.57644 20.3276 3.24377 20.2168 2.80033 20.2168H1.76555V22.4342H2.80033C3.65033 22.4342 4.05689 22.0646 4.05689 21.3255ZM9.37854 25.7233L7.78944 23.1733H7.05033V25.7233H6.01555V19.3668H8.26988C9.00899 19.3668 9.56332 19.5516 9.93301 19.8842C10.3026 20.2537 10.4873 20.6972 10.4873 21.2885C10.4873 21.7689 10.3394 22.2124 10.0808 22.508C9.7851 22.8407 9.37854 23.0255 8.86122 23.1364L10.5242 25.7233H9.37854ZM7.05033 22.4712H8.196C9.046 22.4712 9.45256 22.1016 9.45256 21.3624C9.45256 21.0298 9.34167 20.7342 9.15689 20.5494C8.97211 20.3646 8.63944 20.2537 8.196 20.2537H7.05033V22.4712ZM15.2178 24.3559H12.5199L12.0394 25.7233H10.9308L13.296 19.4407H14.4785L16.8069 25.7233H15.6982L15.2178 24.3559ZM14.9221 23.5428L13.8503 20.5494L12.7785 23.5428H14.9221ZM22.0178 19.8472C22.5351 20.2168 22.8678 20.7712 23.0156 21.3624H21.9438C21.796 21.0298 21.5742 20.7342 21.2785 20.5494C20.946 20.3276 20.5394 20.2168 20.1699 20.2537C19.8003 20.2537 19.4308 20.3276 19.0982 20.5494C18.7656 20.7342 18.5069 21.0298 18.359 21.3624C18.1742 21.7321 18.1003 22.1755 18.1003 22.5821C18.1003 23.0255 18.1742 23.4321 18.359 23.8385C18.5438 24.1712 18.8026 24.4668 19.1351 24.6516C19.4678 24.8364 19.8742 24.9472 20.2808 24.9472C20.7982 24.9472 21.2785 24.7624 21.6482 24.4298C22.0178 24.0972 22.2394 23.6537 22.3503 23.0624H19.9482V22.2864H23.1633V23.2842C23.0894 23.7276 22.9417 24.1712 22.646 24.5776C22.3873 24.9472 22.0178 25.2798 21.6112 25.5016C21.1678 25.7233 20.6503 25.8712 20.133 25.8342C19.5417 25.8342 18.9873 25.6864 18.4699 25.4276C17.9894 25.1689 17.6199 24.7624 17.3612 24.2821C16.8438 23.2103 16.8438 21.9907 17.3612 20.9189C17.6199 20.4385 17.9894 20.0321 18.4699 19.7733C18.9873 19.4776 19.5417 19.3668 20.096 19.3668C20.8721 19.2928 21.5003 19.4776 22.0178 19.8472ZM30.4438 19.4407V25.7233H29.409V21.0298L27.5982 25.7233H26.7112L24.9003 21.0298V25.7233H23.8656V19.4407H25.1221L27.1917 24.4668L29.1873 19.4407H30.4438ZM35.4699 24.3559H32.7721L32.2917 25.7233H31.183L33.5482 19.4407H34.7308L37.059 25.7233H35.9503L35.4699 24.3559ZM35.1742 23.5428L34.1026 20.5494L33.0308 23.5428H35.1742ZM41.4569 19.3668V20.1798H39.683V25.7233H38.6482V20.1798H36.8742V19.3668H41.4569ZM43.046 19.3668V25.7603H42.0112V19.3668H43.046ZM48.8851 19.8842C49.4026 20.2907 49.7721 20.8451 49.9199 21.5103H48.8112C48.6633 21.1407 48.4047 20.808 48.109 20.5864C47.7394 20.3646 47.333 20.2168 46.8894 20.2537C46.5199 20.2537 46.1873 20.3276 45.8547 20.5494C45.559 20.7342 45.3003 21.0298 45.1526 21.3624C44.8199 22.1385 44.8199 23.0255 45.1526 23.8016C45.3003 24.1342 45.559 24.3928 45.8547 24.6146C46.1503 24.7994 46.5199 24.9103 46.8894 24.9103C47.333 24.9103 47.7394 24.7994 48.109 24.5776C48.4417 24.3559 48.7003 24.0233 48.8112 23.6537H49.9199C49.7721 24.2821 49.4026 24.8733 48.8851 25.2798C48.3678 25.6864 47.7026 25.8712 46.9264 25.8712C46.3721 25.8712 45.8178 25.7233 45.3373 25.4646C44.8938 25.2059 44.4873 24.7994 44.2656 24.3189C43.7482 23.2472 43.7482 22.0276 44.2656 20.9559C44.5242 20.4755 44.8938 20.0689 45.3373 19.8103C45.8178 19.5146 46.3721 19.3668 46.9264 19.4037C47.7026 19.2928 48.3678 19.4776 48.8851 19.8842ZM54.7982 23.2472V25.7233H53.7633V19.3668H55.9438C56.683 19.3668 57.2373 19.5516 57.6069 19.8842C57.9764 20.2168 58.1612 20.6972 58.1612 21.3255C58.1612 21.9168 57.9764 22.3972 57.6069 22.7668C57.2373 23.0994 56.683 23.2842 55.9808 23.2842L54.7982 23.2472ZM57.0894 21.3255C57.0894 20.9559 56.9785 20.6972 56.7938 20.5124C56.609 20.3276 56.2764 20.2168 55.833 20.2168H54.7982V22.4342H55.833C56.683 22.4342 57.0894 22.0646 57.0894 21.3255ZM59.8982 24.9472H62.1156V25.7603H58.8633V19.3668H59.8982V24.9472ZM66.846 24.3559H64.1482L63.6678 25.7233H62.559L64.9242 19.4407H66.1069L68.4351 25.7233H67.3265L66.846 24.3559ZM66.5503 23.5428L65.4785 20.5494L64.4069 23.5428H66.5503ZM72.5742 19.3668L70.4678 23.4321V25.7603H69.433V23.4321L67.2894 19.3668H68.4721L69.9503 22.3233L71.4286 19.3668H72.5742ZM35.3415 31.9394V27.1062H34.502V32.6927H38.0799V31.9394H35.3415ZM38.7086 32.6927H39.5481V27.1062H38.7086V32.6927ZM44.2686 27.1062L43.1231 30.3545C42.8668 31.1182 42.6994 31.6308 42.6209 31.8924C42.4797 31.4111 42.3123 30.8985 42.1188 30.3545L40.9497 27.1062H40.0631L42.1423 32.6927H43.0996L45.1396 27.1062H44.2686ZM49.6365 27.8594V27.1062H45.6506V32.6927H49.6129V31.9394H46.4902V30.1741H49.3383V29.4365H46.4902V27.8594H49.6365Z" fill="#00AB55"/>
</g>
<defs>
<clipPath id="clip0_4416_8702">
<rect width="74.5385" height="34" fill="white" transform="translate(0.730774 0.000976562)"/>
</clipPath>
</defs>
</svg>

<svg xmlns="http://www.w3.org/2000/svg" width="76" height="34" fill="none"><g clip-path="url(#a)"><path fill="#00AB55" fill-rule="evenodd" d="M50.991 22.101a11.813 11.813 0 0 1 11.826-11.826A11.813 11.813 0 0 1 74.644 22.1a11.813 11.813 0 0 1-11.827 11.826 11.813 11.813 0 0 1-11.826-11.826Zm1.22.037c0 5.84 4.767 10.57 10.606 10.57 5.84-.038 10.57-4.768 10.57-10.607 0-5.84-4.767-10.57-10.606-10.57-5.84 0-10.57 4.768-10.57 10.607ZM60.12 7.392s-.48-3.289 2.328-5.395c-1.478 3.104-.665 6.282-.444 7.021a11.808 11.808 0 0 0-5.765 1.737c-.258-.813-1.404-3.843-4.324-5.506 3.511.185 4.952 3.141 4.952 3.141S55.76 3.623 56.054.001c2.292 2.809 4.066 7.391 4.066 7.391Zm4.25 5.842c-3.659.221-2.033 5.026 2.032 4.767 3.955-.259 1.885-5.026-2.032-4.767ZM1.766 23.247v2.476H.73v-6.356h2.18c.74 0 1.294.185 1.663.517.37.333.555.813.555 1.442 0 .59-.185 1.071-.555 1.44-.37.37-.924.518-1.626.518l-1.182-.037Zm2.29-1.921c0-.37-.11-.629-.295-.814-.185-.184-.517-.295-.96-.295H1.765v2.217H2.8c.85 0 1.257-.37 1.257-1.108Zm5.323 4.397-1.59-2.55H7.05v2.55H6.016v-6.356H8.27c.739 0 1.293.185 1.663.517.37.37.554.813.554 1.404 0 .48-.148.924-.406 1.22-.296.333-.702.518-1.22.628l1.663 2.587H9.38ZM7.05 22.471h1.146c.85 0 1.257-.37 1.257-1.109 0-.332-.111-.628-.296-.813-.185-.184-.518-.295-.961-.295H7.05v2.217Zm8.168 1.885H12.52l-.48 1.367h-1.11l2.366-6.282h1.183l2.328 6.282h-1.109l-.48-1.367Zm-.296-.813-1.072-2.994-1.072 2.994h2.144Zm7.096-3.696c.517.37.85.924.998 1.515h-1.072c-.148-.332-.37-.628-.665-.813a1.739 1.739 0 0 0-1.11-.295c-.369 0-.738.074-1.07.295-.333.185-.592.48-.74.813-.185.37-.259.814-.259 1.22 0 .444.074.85.259 1.256.185.333.444.629.776.814a2.4 2.4 0 0 0 1.146.295c.517 0 .998-.185 1.367-.517.37-.333.591-.776.702-1.368h-2.402v-.776h3.215v.998a2.984 2.984 0 0 1-.517 1.294c-.259.37-.628.702-1.035.924-.443.221-.96.37-1.478.332a3.683 3.683 0 0 1-1.663-.406c-.48-.26-.85-.666-1.109-1.146a3.838 3.838 0 0 1 0-3.363c.259-.48.628-.887 1.109-1.146.517-.295 1.072-.406 1.626-.406.776-.074 1.404.11 1.922.48Zm8.426-.406v6.282h-1.035V21.03l-1.81 4.693h-.888l-1.81-4.693v4.693h-1.035v-6.282h1.256l2.07 5.026 1.995-5.026h1.257Zm5.026 4.915h-2.698l-.48 1.367h-1.109l2.365-6.282h1.183l2.328 6.282H35.95l-.48-1.367Zm-.296-.813-1.071-2.994-1.072 2.994h2.143Zm6.283-4.176v.813h-1.774v5.543h-1.035V20.18h-1.774v-.813h4.583Zm1.589 0v6.393h-1.035v-6.393h1.035Zm5.84.517c.517.407.886.961 1.034 1.626H48.81a2.204 2.204 0 0 0-.702-.924c-.37-.221-.776-.37-1.22-.332-.37 0-.702.074-1.034.295-.296.185-.555.48-.702.813a3.105 3.105 0 0 0 0 2.44c.147.332.406.59.702.813.295.184.665.295 1.034.295.444 0 .85-.11 1.22-.332.333-.222.591-.555.702-.924h1.109a2.954 2.954 0 0 1-1.035 1.626c-.517.406-1.182.591-1.959.591a3.385 3.385 0 0 1-1.589-.406c-.443-.26-.85-.666-1.071-1.146a3.837 3.837 0 0 1 0-3.363c.258-.48.628-.887 1.071-1.146a2.698 2.698 0 0 1 1.59-.406c.776-.111 1.44.074 1.958.48Zm5.912 3.363v2.476h-1.035v-6.356h2.18c.74 0 1.294.185 1.664.517.37.333.554.813.554 1.442 0 .59-.185 1.071-.554 1.44-.37.333-.924.518-1.626.518l-1.183-.037Zm2.291-1.921c0-.37-.11-.629-.295-.814-.185-.184-.518-.295-.961-.295h-1.035v2.217h1.035c.85 0 1.256-.37 1.256-1.108Zm2.81 3.621h2.217v.813h-3.253v-6.393h1.035v5.58Zm6.947-.591h-2.698l-.48 1.367h-1.109l2.365-6.282h1.183l2.328 6.282h-1.109l-.48-1.367Zm-.296-.813-1.072-2.994-1.071 2.994h2.143Zm6.024-4.176-2.106 4.065v2.328h-1.035v-2.328l-2.144-4.065h1.183l1.478 2.956 1.479-2.956h1.145ZM35.342 31.939v-4.833h-.84v5.587h3.578v-.754h-2.738Zm3.367.754h.84v-5.587h-.84v5.587Zm5.56-5.587-1.146 3.248a62.277 62.277 0 0 0-.502 1.538 28.803 28.803 0 0 0-.502-1.537l-1.17-3.249h-.886l2.08 5.587h.957l2.04-5.587h-.871Zm5.367.753v-.753h-3.985v5.587h3.962v-.754H46.49v-1.765h2.848v-.738H46.49V27.86h3.146Z" clip-rule="evenodd"/></g><defs><clipPath id="a"><path fill="#fff" d="M.73.001H75.27v34H.73z"/></clipPath></defs></svg>
